X: 1837
T: The Blackbird And The Hen
M:6/8
L:1/8
B:O'Neill's 1837
Z:"Transcribed by Bob Safranek, rjs@gsp.org"
K:A
(e/d/) |.c(cd) .B(Bc) |.A(AB/c/) {c}.d2 B | (fd).B (c/d/e).c | {c}BAA A2 (e/d/)|
         ccd    BBc   | AA(B/c/) {c}d2  b |   fdB  (c/d/e)b  |    baa a2 :|
|:(d/c/) |(de).f (=ge)(d/c/)|def/^g/ a2 a |({a}=ge).e ({e}dB).A |Bee e2 (e/d/)|
.c(c/e/d/c/) .B(B/d/c/B/) | .A(A/B/c/A/) d2 B |\
.f(e/d/c/B/) (c/d/)(e/c/)(d/B/) | BAA A2 :|


